X: 37
T:Jackson's Dream (#147)
M:6/8
L:1/8
S:O'Farrell's Pocket Companion 1804-10
K:D
A|DED D2 d|AGF G2 B|AFD FED|EFE E2 F|
DED D2 d|AGF G2 B|AFD FEF|DED D2:|
|:g|fed edB|ABd e3|fed edB|ABd d3|
f2 d edB|ABd g2 e|faf g2 e|fdd d2:||

